image/logo/social_icon_whatsapp.svg

<svg width="48" height="48" viewBox="0 0 48 48" fill="none" xmlns="http://www.w3.org/2000/svg">
<path fill-rule="evenodd" clip-rule="evenodd" d="M14.0328 23.9286C14.0168 18.6516 18.2058 14.2616 23.5158 14.0116C29.3508 13.7356 34.1498 18.4406 33.9678 24.2156C33.7988 29.6006 29.2748 33.8786 23.8478 33.7956C22.3607 33.775 20.897 33.4224 19.5638 32.7636L14.5298 33.9476C14.4665 33.9628 14.4004 33.9619 14.3376 33.9448C14.2748 33.9277 14.2174 33.8951 14.1705 33.85C14.1237 33.8048 14.0889 33.7486 14.0696 33.6865C14.0502 33.6243 14.0469 33.5583 14.0598 33.4946L15.1178 28.3936C14.4073 27.0123 14.0354 25.4819 14.0328 23.9286ZM26.9109 25.495L28.8419 26.045C28.9493 26.075 29.0483 26.1298 29.1307 26.2051C29.2131 26.2803 29.2767 26.3738 29.3163 26.478C29.356 26.5823 29.3707 26.6944 29.3591 26.8054C29.3476 26.9164 29.3102 27.0231 29.2499 27.117C28.8729 27.708 28.2729 28.431 27.5229 28.611C26.2019 28.93 24.1709 28.619 21.6359 26.27C19.4419 24.236 18.8619 22.543 18.9989 21.2C19.0759 20.437 19.7159 19.75 20.2549 19.297C20.3404 19.2249 20.4415 19.1737 20.5501 19.1473C20.6588 19.121 20.7721 19.1201 20.8811 19.145C20.9901 19.1698 21.0919 19.2195 21.1785 19.2903C21.265 19.3611 21.334 19.451 21.3799 19.553L22.1919 21.377C22.2443 21.4947 22.2638 21.6244 22.2481 21.7523C22.2324 21.8802 22.1822 22.0014 22.1029 22.103L21.6909 22.633C21.6055 22.7417 21.5546 22.8735 21.5446 23.0114C21.5346 23.1493 21.5661 23.2871 21.6349 23.407C22.1259 24.256 24.0479 25.952 24.9609 26.319C25.09 26.3705 25.2314 26.3828 25.3675 26.3543C25.5036 26.3258 25.6282 26.2579 25.7259 26.159L26.1979 25.681C26.2891 25.5889 26.4035 25.5231 26.5289 25.4903C26.6544 25.4576 26.7863 25.4592 26.9109 25.495Z" fill="white"/>
</svg>

<svg xmlns="http://www.w3.org/2000/svg" width="48" height="48" fill="none"><path fill="#fff" fill-rule="evenodd" d="M14.033 23.929c-.016-5.277 4.173-9.667 9.483-9.917 5.835-.276 10.634 4.429 10.452 10.204-.17 5.385-4.693 9.663-10.12 9.58a9.982 9.982 0 0 1-4.284-1.032l-5.034 1.184a.387.387 0 0 1-.47-.453l1.058-5.101a9.797 9.797 0 0 1-1.085-4.465Zm12.878 1.566 1.93.55a.712.712 0 0 1 .409 1.072c-.377.591-.977 1.314-1.727 1.494-1.321.319-3.352.008-5.887-2.341-2.194-2.034-2.774-3.727-2.637-5.07.077-.763.717-1.45 1.256-1.903a.723.723 0 0 1 1.125.256l.812 1.824a.71.71 0 0 1-.09.726l-.411.53a.694.694 0 0 0-.056.774c.49.849 2.413 2.545 3.326 2.912a.706.706 0 0 0 .765-.16l.472-.478a.723.723 0 0 1 .713-.186Z" clip-rule="evenodd"/></svg>
